X:1
T:Title
%%score 1 { 2 | 3 }
L:1/8
Q:1/4=112
M:4/4
K:G
V:1 treble nm="Grand Piano, Staff"
V:2 bass nm="Grand Piano, Staff-1"
V:3 bass 
V:1
 [B,D]2 [B,D]2 D2 [DB]2- | [DB][CA] [B,G]6 | [DG]2 [CA]2- [CA]/ z/ [CA] [B,G]2 | [DA]2 [DB]6 | %4
w: By~I.~Woodbury,~19a~jc. * * *||||
 [DB]2 [Ec]2- [Ec]/ z/ [Ec] [Ec]2 | [DA]2 [DB]2- [DB]/ z/ [DB] [DB]2 | %6
w: ||
 [DG]2 [EA]2- [EA]/ z/ [EA] [DB]2 | [CA]2 [B,G]6 | [DG]2 [DA]2- [DA]/ z/ [DA] [DG]2 | [DA]2 [DB]6 | %10
w: ||||
 [DB]2 [DB]2- [DB]/ z/ [DB] [DA]2 | [GB]2 [Fc]6 | [Dc]2 [DB]2 [Fd]2 [Gd]2 | %13
w: |||
 [DB]2 [EB]2 [DG]2 [EG]2 | [CE]2 [B,D]2 [DG]2 [GB]2- | [GB][FA] G6 |] %16
w: |||
V:2
 G,2 G,2 G,2 G,2- | G,F, G,6 | G,2 F,2- F,/ z/ F, G,2 | F,2 G,6 | G,2 G,2- G,/ z/ G, G,2 | %5
 A,2 G,2- G,/ z/ G, G,2 | G,2 G,2- G,/ z/ G, F,2 | F,2 G,6 | B,2 F,2- F,/ z/ F, E,2 | F,2 G,6 | %10
 G,2 G,2- G,/ z/ G, F,2 | G,2 A,6 | A,2 B,2 C2 D2 | G,2 G,2 G,2 G,2 | G,2 G,2[K:treble] B,2 D2- | %15
 DC B,6 |] %16
V:3
 G,,2 G,,2 B,,2 D,2- | D,D, G,,6 | B,,2 D,2- D,/ z/ D, E,2 | D,2 z2 z4 | z2 E,2- E,/ z/ E, E,2 | %5
 F,2 z2 z4 | B,,2 C,2- C,/ z/ C, D,2 | D,2 G,,6 | G,2 D,2- D,/ z/ D, D,2 | D,2 z2 z4 | %10
 D,2 D,2- D,/ z/ D, D,2 | D,2 D,6 | F,2 G,2 A,2 B,2 | z2 E,2 B,,2 C,2 | C,2 D,2 D,2 D,2- | %15
 D,D, G,,6 |] %16

